assets/wordmark-bizzi.svg

<svg viewBox="0 0 105 30" version="1.1" xmlns="http://www.w3.org/2000/svg" xmlns:xlink="http://www.w3.org/1999/xlink">
    <defs>
        <polygon id="path-1" points="0 0.152 16.517 0.152 16.517 21.96 0 21.96"></polygon>
    </defs>
    <g id="Page-1" stroke="none" stroke-width="1" fill="none" fill-rule="evenodd">
        <g id="Artboard" transform="translate(-1272.000000, -1182.000000)">
            <g id="wordmark-bizzi" transform="translate(1272.000000, 1182.000000)">
                <polygon id="Shape" fill="#0088FF" fill-rule="nonzero" points="31.163 17.798 28.062 11.748 22.635 23.578 6.034 23.578 3.27 29.613 25.736 29.613 28.516 23.58"></polygon>
                <path d="M25.28,17.798 L28.062,11.748 L23.056,11.748 L25.702,5.966 L19.618,5.966 L14.208,17.798 L25.28,17.798 Z M5.511,11.747 L0,23.781 L3.27,29.612 L11.46,11.747 L5.511,11.747 Z" id="Shape" fill="#0088FF" fill-rule="nonzero"></path>
                <polygon id="Shape" fill="#0088FF" fill-rule="nonzero" points="22.365 0 4.938 0 2.208 5.966 25.702 5.966"></polygon>
                <path d="M25.702,5.966 L18.135,9.22 L19.618,5.967 L25.702,5.966 Z M28.062,11.747 L21.404,17.797 L25.281,17.797 L28.062,11.747 Z M6.034,23.579 L5.798,29.612 L3.27,29.612 L6.034,23.579 Z" id="Shape" fill="#1267FB" fill-rule="nonzero"></path>
                <path d="M48.792,19.635 C48.017,20.562 46.938,21.034 45.573,21.034 C44.983,21.034 44.478,21 44.056,20.949 C43.7102845,20.9135893 43.3670023,20.8574887 43.028,20.781 L43.028,11.545 C43.348,11.325 43.787,11.124 44.326,10.938 C44.8855276,10.751683 45.4723156,10.6604199 46.062,10.668 C47.41,10.668 48.404,11.124 49.028,12.051 C49.652,12.978 49.972,14.225 49.972,15.792 C49.972,17.41 49.584,18.691 48.792,19.635 Z M53.292,12.421 C52.972,11.393 52.517,10.5 51.927,9.758 C51.337,9.017 50.596,8.461 49.702,8.056 C48.809,7.652 47.798,7.449 46.685,7.449 C45.927,7.449 45.236,7.534 44.612,7.719 C44.0674163,7.87507477 43.5374232,8.07817186 43.028,8.326 L43.028,0 L39.32,0 L37.483,4.028 L39.32,4.011 L39.32,23.326 C40.062,23.545 40.989,23.747 42.101,23.933 C43.213,24.118 44.393,24.203 45.624,24.203 C46.888,24.203 48.034,24 49.028,23.613 C50.022,23.225 50.882,22.669 51.59,21.927 C52.298,21.185 52.837,20.309 53.225,19.264 C53.595,18.236 53.798,17.073 53.798,15.775 C53.781,14.595 53.612,13.449 53.292,12.421 Z M59.242,7.787 L56.242,7.787 L54.826,10.905 L56.242,10.905 L56.242,23.848 L59.966,23.848 L59.966,7.787 L59.242,7.787 Z" id="Shape" fill="#0088FF" fill-rule="nonzero"></path>
                <g id="Group" transform="translate(88.483000, 7.618000)">
                    <g id="Clipped">
                        <mask id="mask-2" fill="white">
                            <use xlink:href="#path-1"></use>
                        </mask>
                        <g id="a"></g>
                        <path d="M12.674,0.169 C12.0421199,2.16598981 11.3847328,4.15481902 10.702,6.135 C10.0297337,8.09871923 9.28793276,10.0379416 8.478,11.949 C8.12378311,11.0095919 7.79763837,10.0598371 7.5,9.101 C7.17899619,8.07990151 6.88125257,7.05163574 6.607,6.017 C6.32625305,5.00743996 6.07315851,3.99039336 5.848,2.967 C5.62690001,2.04146244 5.44142997,1.10777426 5.292,0.168 L1.332,0.168 C1.972,3.151 2.73,5.982 3.64,8.645 C4.47193243,11.1461149 5.42812081,13.6041699 6.505,16.01 C6.034,16.97 5.495,17.679 4.921,18.15 C4.348,18.606 3.573,18.842 2.612,18.842 C2.123,18.842 1.803,18.825 1.315,18.673 L0,21.556 C0.236,21.64 0.506,21.708 0.826,21.776 C1.37962537,21.8965832 1.94440001,21.9585911 2.511,21.961 C3.28442296,21.9687161 4.05535909,21.8721809 4.803,21.674 C5.478,21.472 6.354,21.169 6.91,20.73 C7.5009532,20.2609522 8.02276389,19.7108627 8.46,19.096 C8.933,18.438 9.405,17.646 9.876,16.736 C12.404,11.781 14.343,6.286 16.516,0.152 L12.674,0.152 L12.674,0.169 Z" id="Shape" fill="#0088FF" fill-rule="nonzero" mask="url(#mask-2)"></path>
                    </g>
                </g>
                <path d="M57.084,5.966 L60.809,5.966 L62.242,2.866 L58.517,2.866 L57.084,5.966 Z M77.427,7.787 L75.994,10.887 L83.376,10.887 C82.8082426,11.6484416 82.2521775,12.4185319 81.708,13.197 C81.061357,14.1077724 80.4378248,15.0347348 79.838,15.977 C79.222203,16.9345939 78.620802,17.9013692 78.034,18.877 C77.848,19.18 77.68,19.483 77.511,19.77 C77.511,19.77 77.056,20.46 76.635,21.455 C76.618,21.489 76.601,21.505 76.601,21.539 L76.601,21.573 L76.821,23.848 L87.876,23.848 L89.309,20.748 L81,20.748 C81.524,19.803 82.13,18.826 82.788,17.781 C83.4406853,16.7762379 84.109101,15.7817821 84.793,14.798 C85.467,13.854 86.091,12.978 86.681,12.202 C87.1442002,11.5899093 87.6216643,10.9887446 88.113,10.399 L87.86,7.787 L77.427,7.787 Z M63.607,7.787 L62.174,10.887 L69.556,10.887 C68.9882426,11.6484416 68.4321775,12.4185319 67.888,13.197 C67.2410199,14.1077613 66.6171541,15.0347238 66.017,15.977 C65.4015385,16.9346003 64.800471,17.9013756 64.214,18.877 C64.028,19.18 63.86,19.483 63.691,19.77 C63.691,19.77 63.236,20.46 62.815,21.455 C62.798,21.489 62.781,21.505 62.781,21.539 L62.781,21.573 L63,23.848 L74.056,23.848 L75.489,20.748 L67.179,20.748 C67.702,19.803 68.309,18.826 68.966,17.781 C69.6091828,16.7697645 70.2780673,15.7751074 70.972,14.798 C71.646,13.854 72.27,12.978 72.859,12.202 C73.3225297,11.5898985 73.8003273,10.9887338 74.292,10.399 L74.039,7.787 L63.607,7.787 Z" id="Shape" fill="#0088FF" fill-rule="nonzero"></path>
            </g>
        </g>
    </g>
</svg>

<svg xmlns="http://www.w3.org/2000/svg" xmlns:xlink="http://www.w3.org/1999/xlink" width="220.875" height="65.5" viewBox="0 0 105 35">
    <defs>
        <path id="a" d="M0 .152h16.517V21.96H0z"/>
    </defs>
    <g fill="none" fill-rule="evenodd">
        <path fill="#08F" d="M68.376 32.95c.236 0 .472-.051.691-.17.22-.117.439-.269.607-.471.186-.202.337-.421.455-.657.118-.253.202-.506.236-.776.05-.32.017-.59-.067-.775-.085-.185-.27-.27-.573-.27-.102 0-.22.017-.388.051a.979.979 0 0 0-.438.22l-1.062 2.797c.034 0 .068.017.101.017.034 0 .068.017.101.017h.118a.961.961 0 0 0 .22.016m1.92-4.365c.321 0 .608.05.827.169.219.118.404.27.522.472.135.202.22.421.253.69.034.27.034.557 0 .86-.068.472-.22.91-.438 1.332a4.273 4.273 0 0 1-.86 1.095 4.152 4.152 0 0 1-1.163.742c-.438.185-.893.27-1.365.27h-.32c-.152 0-.32-.017-.523-.051a7.7 7.7 0 0 1-.606-.118 3.22 3.22 0 0 1-.607-.22l2.78-7.432 1.619-.253-.995 2.647c.152-.068.287-.102.422-.152.151-.034.303-.05.455-.05M75.522 29.747c-.354 0-.674.118-.96.371-.304.253-.506.573-.658.994.422-.016.776-.05 1.046-.1.269-.051.471-.136.623-.203.152-.084.27-.169.32-.27a.687.687 0 0 0 .118-.286c.05-.337-.118-.506-.489-.506m-3.27 2.225c.051-.438.186-.86.405-1.264.202-.405.472-.775.792-1.096.32-.32.692-.573 1.13-.775.42-.202.876-.286 1.365-.286.236 0 .455.033.657.1.202.068.354.17.489.304.135.135.236.287.286.472.068.185.068.404.034.64-.05.388-.185.708-.388.978-.202.27-.471.489-.792.657-.32.169-.708.287-1.129.371a8.623 8.623 0 0 1-1.382.118c.017.287.084.489.236.607.152.118.388.185.742.185.219 0 .438-.017.674-.05.236-.034.455-.102.657-.169l-.05 1.197a7.792 7.792 0 0 1-.759.202 4.495 4.495 0 0 1-.977.084c-.422 0-.776-.067-1.045-.185a1.587 1.587 0 0 1-.64-.489 1.676 1.676 0 0 1-.304-.708 3.166 3.166 0 0 1 0-.893M79.247 27.354l1.618-.253-.607 1.584h1.703l-.472 1.248h-1.686l-.707 1.887c-.068.152-.102.304-.135.439a.628.628 0 0 0 0 .353.453.453 0 0 0 .202.236c.101.05.253.085.438.085.169 0 .32-.017.489-.051.151-.034.32-.067.489-.135l-.05 1.163c-.22.067-.44.135-.692.202-.253.05-.54.085-.86.085-.471 0-.825-.068-1.061-.203a.98.98 0 0 1-.472-.573c-.084-.235-.084-.522-.034-.825.05-.32.152-.641.27-.995l1.567-4.247zM85.466 29.865c-.084-.017-.168-.017-.236-.034-.067 0-.151-.016-.252-.016-.236 0-.472.05-.692.168-.235.118-.454.27-.64.455-.202.186-.37.405-.522.658a3.482 3.482 0 0 0-.337.775c-.085.32-.102.59-.034.775.05.185.236.287.522.287.152 0 .304-.034.455-.085.152-.05.304-.168.49-.303.05-.169.134-.354.201-.54.085-.185.152-.353.236-.522l.81-1.618zm.573 1.888c-.202.387-.32.775-.387 1.163-.068.387-.084.741-.034 1.045l-1.416.202-.05-.236a1.028 1.028 0 0 1-.034-.253 3.862 3.862 0 0 1-.741.388c-.253.101-.54.152-.827.152-.337 0-.623-.068-.825-.186a1.198 1.198 0 0 1-.472-.489 1.564 1.564 0 0 1-.152-.708c0-.27.05-.556.118-.86.118-.471.32-.91.607-1.33a5.06 5.06 0 0 1 .977-1.096c.371-.303.792-.556 1.248-.725a3.603 3.603 0 0 1 1.702-.253c.152 0 .32.017.522.051.186.017.388.067.59.118.202.05.388.135.573.22l-1.399 2.797zM31.163 17.798l-3.101-6.05-5.427 11.83H6.034L3.27 29.613h22.466l2.78-6.033z"/>
        <path fill="#08F" d="M25.28 17.798l2.782-6.05h-5.006l2.646-5.782h-6.084l-5.41 11.832zM5.511 11.747L0 23.781l3.27 5.831 8.19-17.865z"/>
        <path fill="#08F" d="M22.365 0H4.938l-2.73 5.966h23.494z"/>
        <path fill="#1267FB" d="M25.702 5.966L18.135 9.22l1.483-3.253zM28.062 11.747l-6.658 6.05h3.877zM6.034 23.579l-.236 6.033H3.27z"/>
        <path fill="#08F" d="M48.792 19.635c-.775.927-1.854 1.399-3.219 1.399-.59 0-1.095-.034-1.517-.085a8.697 8.697 0 0 1-1.028-.168v-9.236c.32-.22.759-.421 1.298-.607a5.28 5.28 0 0 1 1.736-.27c1.348 0 2.342.456 2.966 1.383.624.927.944 2.174.944 3.741 0 1.618-.388 2.899-1.18 3.843m4.5-7.214c-.32-1.028-.775-1.921-1.365-2.663-.59-.741-1.331-1.297-2.225-1.702-.893-.404-1.904-.607-3.017-.607-.758 0-1.449.085-2.073.27a9.78 9.78 0 0 0-1.584.607V0H39.32l-1.837 4.028 1.837-.017v19.315c.742.219 1.669.421 2.781.607 1.112.185 2.292.27 3.523.27 1.264 0 2.41-.203 3.404-.59.994-.388 1.854-.944 2.562-1.686.708-.742 1.247-1.618 1.635-2.663.37-1.028.573-2.191.573-3.489-.017-1.18-.186-2.326-.506-3.354M59.242 7.787h-3l-1.416 3.118h1.416v12.943h3.724V7.787z"/>
        <g transform="translate(88.483 7.618)">
            <mask id="b" fill="#fff">
                <use xlink:href="#a"/>
            </mask>
            <path fill="#08F" d="M12.674.169a245.734 245.734 0 0 1-1.972 5.966 87.658 87.658 0 0 1-2.224 5.814A50.537 50.537 0 0 1 7.5 9.101a70.608 70.608 0 0 1-.893-3.084 57.494 57.494 0 0 1-.759-3.05A37.163 37.163 0 0 1 5.292.168h-3.96c.64 2.983 1.398 5.814 2.308 8.477a79.254 79.254 0 0 0 2.865 7.365c-.471.96-1.01 1.669-1.584 2.14-.573.456-1.348.692-2.309.692-.489 0-.809-.017-1.297-.169L0 21.556c.236.084.506.152.826.22a8.079 8.079 0 0 0 1.685.185 8.61 8.61 0 0 0 2.292-.287c.675-.202 1.551-.505 2.107-.944a8.02 8.02 0 0 0 1.55-1.634c.473-.658.945-1.45 1.416-2.36 2.528-4.955 4.467-10.45 6.64-16.584h-3.842v.017z" mask="url(#b)"/>
        </g>
        <path fill="#08F" d="M57.084 5.966h3.725l1.433-3.1h-3.725zM77.427 7.787l-1.433 3.1h7.382a93.048 93.048 0 0 0-1.668 2.31 66.325 66.325 0 0 0-1.87 2.78 113.87 113.87 0 0 0-1.804 2.9c-.186.303-.354.606-.523.893 0 0-.455.69-.876 1.685-.017.034-.034.05-.034.084v.034l.22 2.275h11.055l1.433-3.1H81c.524-.945 1.13-1.922 1.788-2.967a114.503 114.503 0 0 1 2.005-2.983c.674-.944 1.298-1.82 1.888-2.596a49.19 49.19 0 0 1 1.432-1.803l-.253-2.612H77.427zM63.607 7.787l-1.433 3.1h7.382a93.048 93.048 0 0 0-1.668 2.31 66.325 66.325 0 0 0-1.871 2.78 113.87 113.87 0 0 0-1.803 2.9c-.186.303-.354.606-.523.893 0 0-.455.69-.876 1.685-.017.034-.034.05-.034.084v.034L63 23.848H74.056l1.433-3.1h-8.31c.523-.945 1.13-1.922 1.787-2.967a70.443 70.443 0 0 1 2.006-2.983c.674-.944 1.298-1.82 1.887-2.596a49.19 49.19 0 0 1 1.433-1.803l-.253-2.612H63.607z"/>
    </g>
</svg>
